src/assets/images/mouth/23.svg

<svg width="32" height="32" viewBox="0 0 32 32" fill="none" xmlns="http://www.w3.org/2000/svg">
<mask id="path-1-inside-1_899_262" fill="white">
<path fill-rule="evenodd" clip-rule="evenodd" d="M17.6699 16.92C17.1176 16.92 16.6699 17.3677 16.6699 17.92C16.6699 18.4723 17.1176 18.92 17.6699 18.92C17.9576 18.92 18.1899 19.1523 18.1899 19.44C18.1899 19.7277 17.9576 19.96 17.6699 19.96C17.1176 19.96 16.6699 20.4077 16.6699 20.96C16.6699 20.96 16.6699 20.96 16.6699 20.96C16.6699 21.5123 17.1176 21.96 17.6699 21.96C17.9576 21.96 18.1899 22.1923 18.1899 22.48C18.1899 22.7677 17.9576 23 17.6699 23C17.1176 23 16.6699 23.4477 16.6699 24C16.6699 24.5523 17.1176 25 17.6699 25C19.0622 25 20.1899 23.8723 20.1899 22.48C20.1899 21.909 20.0002 21.3825 19.6804 20.96C20.0002 20.5375 20.1899 20.011 20.1899 19.44C20.1899 18.0477 19.0622 16.92 17.6699 16.92Z"/>
</mask>
<path fill-rule="evenodd" clip-rule="evenodd" d="M17.6699 16.92C17.1176 16.92 16.6699 17.3677 16.6699 17.92C16.6699 18.4723 17.1176 18.92 17.6699 18.92C17.9576 18.92 18.1899 19.1523 18.1899 19.44C18.1899 19.7277 17.9576 19.96 17.6699 19.96C17.1176 19.96 16.6699 20.4077 16.6699 20.96C16.6699 20.96 16.6699 20.96 16.6699 20.96C16.6699 21.5123 17.1176 21.96 17.6699 21.96C17.9576 21.96 18.1899 22.1923 18.1899 22.48C18.1899 22.7677 17.9576 23 17.6699 23C17.1176 23 16.6699 23.4477 16.6699 24C16.6699 24.5523 17.1176 25 17.6699 25C19.0622 25 20.1899 23.8723 20.1899 22.48C20.1899 21.909 20.0002 21.3825 19.6804 20.96C20.0002 20.5375 20.1899 20.011 20.1899 19.44C20.1899 18.0477 19.0622 16.92 17.6699 16.92Z" fill="url(#paint0_radial_899_262)"/>
<path d="M19.6804 20.96L19.2817 20.6582L19.0533 20.96L19.2817 21.2618L19.6804 20.96ZM17.1699 17.92C17.1699 17.6438 17.3938 17.42 17.6699 17.42V16.42C16.8415 16.42 16.1699 17.0916 16.1699 17.92H17.1699ZM17.6699 18.42C17.3938 18.42 17.1699 18.1961 17.1699 17.92H16.1699C16.1699 18.7484 16.8415 19.42 17.6699 19.42V18.42ZM18.6899 19.44C18.6899 18.8761 18.2338 18.42 17.6699 18.42V19.42C17.6815 19.42 17.6899 19.4284 17.6899 19.44H18.6899ZM17.6699 20.46C18.2338 20.46 18.6899 20.0038 18.6899 19.44H17.6899C17.6899 19.4516 17.6815 19.46 17.6699 19.46V20.46ZM17.1699 20.96C17.1699 20.6838 17.3938 20.46 17.6699 20.46V19.46C16.8415 19.46 16.1699 20.1316 16.1699 20.96H17.1699ZM17.1699 20.96C17.1699 20.96 17.1699 20.96 17.1699 20.96C17.1699 20.96 17.1699 20.96 17.1699 20.96C17.1699 20.96 17.1699 20.96 17.1699 20.96C17.1699 20.96 17.1699 20.96 17.1699 20.96V20.96V20.96V20.96C17.1699 20.96 17.1699 20.96 17.1699 20.96C17.1699 20.96 17.1699 20.96 17.1699 20.96C17.1699 20.96 17.1699 20.96 17.1699 20.96C17.1699 20.96 17.1699 20.96 17.1699 20.96C17.1699 20.96 17.1699 20.96 17.1699 20.96C17.1699 20.96 17.1699 20.96 17.1699 20.96C17.1699 20.96 17.1699 20.96 17.1699 20.96V20.96V20.96V20.96V20.96C17.1699 20.96 17.1699 20.96 17.1699 20.96C17.1699 20.96 17.1699 20.96 17.1699 20.96C17.1699 20.96 17.1699 20.96 17.1699 20.96C17.1699 20.96 17.1699 20.96 17.1699 20.96C17.1699 20.96 17.1699 20.96 17.1699 20.96C17.1699 20.96 17.1699 20.96 17.1699 20.96V20.96V20.96V20.96V20.96C17.1699 20.96 17.1699 20.96 17.1699 20.96C17.1699 20.96 17.1699 20.96 17.1699 20.96C17.1699 20.96 17.1699 20.96 17.1699 20.96C17.1699 20.96 17.1699 20.96 17.1699 20.96C17.1699 20.96 17.1699 20.96 17.1699 20.96C17.1699 20.96 17.1699 20.96 17.1699 20.96C17.1699 20.96 17.1699 20.96 17.1699 20.96V20.96V20.96V20.96C17.1699 20.96 17.1699 20.96 17.1699 20.96C17.1699 20.96 17.1699 20.96 17.1699 20.96C17.1699 20.96 17.1699 20.96 17.1699 20.96C17.1699 20.96 17.1699 20.96 17.1699 20.96C17.1699 20.96 17.1699 20.96 17.1699 20.96C17.1699 20.96 17.1699 20.96 17.1699 20.96C17.1699 20.96 17.1699 20.96 17.1699 20.96C17.1699 20.96 17.1699 20.96 17.1699 20.96V20.96V20.96V20.96C17.1699 20.96 17.1699 20.96 17.1699 20.96C17.1699 20.96 17.1699 20.96 17.1699 20.96C17.1699 20.96 17.1699 20.96 17.1699 20.96C17.1699 20.96 17.1699 20.96 17.1699 20.96C17.1699 20.96 17.1699 20.96 17.1699 20.96C17.1699 20.96 17.1699 20.96 17.1699 20.96C17.1699 20.96 17.1699 20.96 17.1699 20.96V20.96V20.96V20.96V20.96C17.1699 20.96 17.1699 20.96 17.1699 20.96C17.1699 20.96 17.1699 20.96 17.1699 20.96C17.1699 20.96 17.1699 20.96 17.1699 20.96C17.1699 20.96 17.1699 20.96 17.1699 20.96C17.1699 20.96 17.1699 20.96 17.1699 20.96C17.1699 20.96 17.1699 20.96 17.1699 20.96V20.96V20.96V20.96V20.96C17.1699 20.96 17.1699 20.96 17.1699 20.96C17.1699 20.96 17.1699 20.96 17.1699 20.96C17.1699 20.96 17.1699 20.96 17.1699 20.96C17.1699 20.96 17.1699 20.96 17.1699 20.96C17.1699 20.96 17.1699 20.96 17.1699 20.96C17.1699 20.96 17.1699 20.96 17.1699 20.96C17.1699 20.96 17.1699 20.96 17.1699 20.96V20.96V20.96V20.96C17.1699 20.96 17.1699 20.96 17.1699 20.96C17.1699 20.96 17.1699 20.96 17.1699 20.96C17.1699 20.96 17.1699 20.96 17.1699 20.96C17.1699 20.96 17.1699 20.96 17.1699 20.96H16.1699C16.1699 20.96 16.1699 20.96 16.1699 20.96C16.1699 20.96 16.1699 20.96 16.1699 20.96C16.1699 20.96 16.1699 20.96 16.1699 20.96C16.1699 20.96 16.1699 20.96 16.1699 20.96V20.96V20.96V20.96C16.1699 20.96 16.1699 20.96 16.1699 20.96C16.1699 20.96 16.1699 20.96 16.1699 20.96C16.1699 20.96 16.1699 20.96 16.1699 20.96C16.1699 20.96 16.1699 20.96 16.1699 20.96C16.1699 20.96 16.1699 20.96 16.1699 20.96C16.1699 20.96 16.1699 20.96 16.1699 20.96C16.1699 20.96 16.1699 20.96 16.1699 20.96V20.96V20.96V20.96V20.96C16.1699 20.96 16.1699 20.96 16.1699 20.96C16.1699 20.96 16.1699 20.96 16.1699 20.96C16.1699 20.96 16.1699 20.96 16.1699 20.96C16.1699 20.96 16.1699 20.96 16.1699 20.96C16.1699 20.96 16.1699 20.96 16.1699 20.96C16.1699 20.96 16.1699 20.96 16.1699 20.96V20.96V20.96V20.96V20.96C16.1699 20.96 16.1699 20.96 16.1699 20.96C16.1699 20.96 16.1699 20.96 16.1699 20.96C16.1699 20.96 16.1699 20.96 16.1699 20.96C16.1699 20.96 16.1699 20.96 16.1699 20.96C16.1699 20.96 16.1699 20.96 16.1699 20.96C16.1699 20.96 16.1699 20.96 16.1699 20.96C16.1699 20.96 16.1699 20.96 16.1699 20.96V20.96V20.96V20.96C16.1699 20.96 16.1699 20.96 16.1699 20.96C16.1699 20.96 16.1699 20.96 16.1699 20.96C16.1699 20.96 16.1699 20.96 16.1699 20.96C16.1699 20.96 16.1699 20.96 16.1699 20.96C16.1699 20.96 16.1699 20.96 16.1699 20.96C16.1699 20.96 16.1699 20.96 16.1699 20.96C16.1699 20.96 16.1699 20.96 16.1699 20.96C16.1699 20.96 16.1699 20.96 16.1699 20.96V20.96V20.96V20.96C16.1699 20.96 16.1699 20.96 16.1699 20.96C16.1699 20.96 16.1699 20.96 16.1699 20.96C16.1699 20.96 16.1699 20.96 16.1699 20.96C16.1699 20.96 16.1699 20.96 16.1699 20.96C16.1699 20.96 16.1699 20.96 16.1699 20.96C16.1699 20.96 16.1699 20.96 16.1699 20.96C16.1699 20.96 16.1699 20.96 16.1699 20.96V20.96V20.96V20.96V20.96C16.1699 20.96 16.1699 20.96 16.1699 20.96C16.1699 20.96 16.1699 20.96 16.1699 20.96C16.1699 20.96 16.1699 20.96 16.1699 20.96C16.1699 20.96 16.1699 20.96 16.1699 20.96C16.1699 20.96 16.1699 20.96 16.1699 20.96C16.1699 20.96 16.1699 20.96 16.1699 20.96V20.96V20.96V20.96V20.96C16.1699 20.96 16.1699 20.96 16.1699 20.96C16.1699 20.96 16.1699 20.96 16.1699 20.96C16.1699 20.96 16.1699 20.96 16.1699 20.96C16.1699 20.96 16.1699 20.96 16.1699 20.96C16.1699 20.96 16.1699 20.96 16.1699 20.96C16.1699 20.96 16.1699 20.96 16.1699 20.96C16.1699 20.96 16.1699 20.96 16.1699 20.96V20.96V20.96V20.96C16.1699 20.96 16.1699 20.96 16.1699 20.96C16.1699 20.96 16.1699 20.96 16.1699 20.96C16.1699 20.96 16.1699 20.96 16.1699 20.96C16.1699 20.96 16.1699 20.96 16.1699 20.96H17.1699ZM17.6699 21.46C17.3938 21.46 17.1699 21.2362 17.1699 20.96H16.1699C16.1699 21.7884 16.8415 22.46 17.6699 22.46V21.46ZM18.6899 22.48C18.6899 21.9162 18.2338 21.46 17.6699 21.46V22.46C17.6815 22.46 17.6899 22.4684 17.6899 22.48H18.6899ZM17.6699 23.5C18.2338 23.5 18.6899 23.0439 18.6899 22.48H17.6899C17.6899 22.4916 17.6815 22.5 17.6699 22.5V23.5ZM17.1699 24C17.1699 23.7239 17.3938 23.5 17.6699 23.5V22.5C16.8415 22.5 16.1699 23.1716 16.1699 24H17.1699ZM17.6699 24.5C17.3938 24.5 17.1699 24.2762 17.1699 24H16.1699C16.1699 24.8284 16.8415 25.5 17.6699 25.5V24.5ZM19.6899 22.48C19.6899 23.5962 18.7861 24.5 17.6699 24.5V25.5C19.3383 25.5 20.6899 24.1484 20.6899 22.48H19.6899ZM19.2817 21.2618C19.5381 21.6004 19.6899 22.0216 19.6899 22.48H20.6899C20.6899 21.7964 20.4624 21.1646 20.079 20.6582L19.2817 21.2618ZM19.6899 19.44C19.6899 19.8984 19.5381 20.3196 19.2817 20.6582L20.079 21.2618C20.4624 20.7554 20.6899 20.1236 20.6899 19.44H19.6899ZM17.6699 17.42C18.7861 17.42 19.6899 18.3238 19.6899 19.44H20.6899C20.6899 17.7716 19.3383 16.42 17.6699 16.42V17.42Z" fill="url(#paint1_linear_899_262)" mask="url(#path-1-inside-1_899_262)"/>
<defs>
<radialGradient id="paint0_radial_899_262" cx="0" cy="0" r="1" gradientUnits="userSpaceOnUse" gradientTransform="translate(16.6699 20.96) scale(6.33008 7.26524)">
<stop stop-color="#3E3537"/>
<stop offset="0.313085" stop-color="#523A4F"/>
<stop offset="0.675586" stop-color="#6A5763"/>
</radialGradient>
<linearGradient id="paint1_linear_899_262" x1="19" y1="21" x2="20.5" y2="20.5" gradientUnits="userSpaceOnUse">
<stop stop-color="#664F62" stop-opacity="0"/>
<stop offset="1" stop-color="#765D72"/>
</linearGradient>
</defs>
</svg>

<svg width="32" height="32" fill="none" xmlns="http://www.w3.org/2000/svg"><mask id="c" fill="#fff"><path fill-rule="evenodd" clip-rule="evenodd" d="M17.67 16.92a1 1 0 1 0 0 2 .52.52 0 1 1 0 1.04 1 1 0 1 0 0 2 .52.52 0 1 1 0 1.04 1 1 0 1 0 0 2 2.52 2.52 0 0 0 2.01-4.04 2.52 2.52 0 0 0-2.01-4.04z"/></mask><path fill-rule="evenodd" clip-rule="evenodd" d="M17.67 16.92a1 1 0 1 0 0 2 .52.52 0 1 1 0 1.04 1 1 0 1 0 0 2 .52.52 0 1 1 0 1.04 1 1 0 1 0 0 2 2.52 2.52 0 0 0 2.01-4.04 2.52 2.52 0 0 0-2.01-4.04z" fill="url(#a)"/><path d="m19.68 20.96-.398-.302-.229.302.229.302.398-.302zm-2.51-3.04a.5.5 0 0 1 .5-.5v-1a1.5 1.5 0 0 0-1.5 1.5h1zm.5.5a.5.5 0 0 1-.5-.5h-1a1.5 1.5 0 0 0 1.5 1.5v-1zm1.02 1.02a1.02 1.02 0 0 0-1.02-1.02v1a.02.02 0 0 1 .02.02h1zm-1.02 1.02a1.02 1.02 0 0 0 1.02-1.02h-1a.02.02 0 0 1-.02.02v1zm-.5.5a.5.5 0 0 1 .5-.5v-1a1.5 1.5 0 0 0-1.5 1.5h1zm0 0h-1 1zm.5.5a.5.5 0 0 1-.5-.5h-1a1.5 1.5 0 0 0 1.5 1.5v-1zm1.02 1.02a1.02 1.02 0 0 0-1.02-1.02v1a.02.02 0 0 1 .02.02h1zm-1.02 1.02a1.02 1.02 0 0 0 1.02-1.02h-1a.02.02 0 0 1-.02.02v1zm-.5.5a.5.5 0 0 1 .5-.5v-1a1.5 1.5 0 0 0-1.5 1.5h1zm.5.5a.5.5 0 0 1-.5-.5h-1a1.5 1.5 0 0 0 1.5 1.5v-1zm2.02-2.02a2.02 2.02 0 0 1-2.02 2.02v1a3.02 3.02 0 0 0 3.02-3.02h-1zm-.408-1.218c.256.338.408.76.408 1.218h1a3.01 3.01 0 0 0-.611-1.822l-.797.604zm.408-1.822c0 .458-.152.88-.408 1.218l.797.604a3.01 3.01 0 0 0 .61-1.822h-1zm-2.02-2.02a2.02 2.02 0 0 1 2.02 2.02h1a3.02 3.02 0 0 0-3.02-3.02v1z" fill="url(#b)" mask="url(#c)"/><defs><radialGradient id="a" cx="0" cy="0" r="1" gradientUnits="userSpaceOnUse" gradientTransform="matrix(6.33008 0 0 7.26524 16.67 20.96)"><stop stop-color="#3E3537"/><stop offset=".313" stop-color="#523A4F"/><stop offset=".676" stop-color="#6A5763"/></radialGradient><linearGradient id="b" x1="19" y1="21" x2="20.5" y2="20.5" gradientUnits="userSpaceOnUse"><stop stop-color="#664F62" stop-opacity="0"/><stop offset="1" stop-color="#765D72"/></linearGradient></defs></svg>
